X:1
T: Swaggering
C:
R:Jig
Q:180
K:A
M:6/8
L:1/16
e2|:c2A2A2 B2A2F2|E2A2A2 A4A2|c2e2e2 e2c2A2|B6 e4d2|
c2A2A2 B2A2F2|E2A2A2 A4A2|E2A2A2 G2B2B2|A6 e4d2:|
|:c2e2d2 e2a2f2|e2c2A2 A4A2|c2e2e2 e2c2A2|B6 e4d2|
c2e2d2 e2a2f2|e2c2A2 A4A2|E2A2A2 G2B2B2|1A6e4d2:||2A6-A4||
